icons/file-code-fill.svg

<svg xmlns="http://www.w3.org/2000/svg" width="24" height="24" fill="none"><g clip-path="url(#a)"><g><path fill="#121212" d="M16 2L21 7V21.008C20.9997 21.2712 20.895 21.5235 20.7088 21.7095C20.5226 21.8955 20.2702 22 20.007 22H3.993C3.73038 21.9982 3.47902 21.8931 3.29322 21.7075C3.10742 21.5219 3.00209 21.2706 3 21.008V2.992C3 2.444 3.445 2 3.993 2H16ZM17.657 12L14.12 8.464L12.707 9.88L14.828 12L12.708 14.121L14.121 15.536L17.657 12ZM6.343 12L9.879 15.536L11.293 14.121L9.172 12L11.292 9.879L9.88 8.464L6.343 12Z"/></g></g><defs><clipPath id="a"><rect width="24" height="24" fill="white"/></clipPath></defs></svg>

<svg width="24" height="24" fill="none" xmlns="http://www.w3.org/2000/svg"><g clip-path="url(#a)"><path d="m16 2 5 5v14.008a.993.993 0 0 1-.993.992H3.993A1 1 0 0 1 3 21.008V2.992C3 2.444 3.445 2 3.993 2H16Zm1.657 10L14.12 8.464 12.707 9.88 14.828 12l-2.12 2.121 1.413 1.415L17.657 12ZM6.343 12l3.536 3.536 1.414-1.415L9.172 12l2.12-2.121L9.88 8.464 6.343 12Z" /></g><defs><clipPath id="a"><path fill="#fff" d="M0 0h24v24H0z"/></clipPath></defs></svg>
